Yaru++/apps/symbolic/sublime-text-symbolic.svg

<svg height="16" viewBox="0 0 16 16" width="16" xmlns="http://www.w3.org/2000/svg">
  <path d="m13.222656.80273438c-.0323-.004859-.068221-.00198438-.105468.00976562l-10.257813 3.2539062c-.149.0480001-.2714844.2207657-.2714844.3847657v3.3261719c0 .0372479.0114058.0656086.0234375.09375v.0664062c0 .164.1224844.3358125.2714844.3828125l4.328125 1.3730469 5.9296875-1.8808594c.129824-.0409513.22401.0376966.25.1640625-.025813-.1427784-.119308-.2823974-.25-.3242187l-10.2578125-3.2539063c-.03725-.012-.073172-.0145-.1054687-.0097656-.0968908.0142031-.1660157.0989062-.1660157.2226562v-.1992187c0-.165.1224844-.2608907.2714844-.2128906l5.9609375 1.890625 4.273438-1.3554688c.148998-.047.271484-.2178125.271484-.3828125v-3.3261719c0-.12299997-.06912-.20807812-.166016-.22265622zm.023438 7.19921872c-.032391-.0048593-.068219-.0019844-.105469.0097657l-10.2578125 3.2539062c-.149.047-.2714844.219766-.2714844.384766v3.326171c0 .164.1224844.257938.2714844.210938l10.2578125-3.253906c.149-.048.271484-.218813.271484-.382813v-.1875-.013672-3.1249996c0-.123-.068843-.2080782-.166015-.2226563z" fill="#808080"/>
</svg>

<svg xmlns="http://www.w3.org/2000/svg" style="isolation:isolate" width="16" height="16" version="1.1" viewBox="0 0 16 16">
 <defs>
  <style id="current-color-scheme" type="text/css">
   .ColorScheme-Text { color:#808080; } .ColorScheme-Highlight { color:#5294e2; }
  </style>
 </defs>
 <path fill="currentColor" class="ColorScheme-Text" d="M 13.222656 0.80273438 C 13.190356 0.79787538 13.154435 0.80075 13.117188 0.8125 L 2.859375 4.0664062 C 2.710375 4.1144063 2.5878906 4.2871719 2.5878906 4.4511719 L 2.5878906 7.7773438 C 2.5878906 7.8145917 2.5992964 7.8429524 2.6113281 7.8710938 L 2.6113281 7.9375 C 2.6113281 8.1015 2.7338125 8.2733125 2.8828125 8.3203125 L 7.2109375 9.6933594 L 13.140625 7.8125 C 13.270449 7.7715487 13.364635 7.8501966 13.390625 7.9765625 C 13.364812 7.8337841 13.271317 7.6941651 13.140625 7.6523438 L 2.8828125 4.3984375 C 2.8455625 4.3864375 2.8096405 4.3839375 2.7773438 4.3886719 C 2.680453 4.402875 2.6113281 4.4875781 2.6113281 4.6113281 L 2.6113281 4.4121094 C 2.6113281 4.2471094 2.7338125 4.1512187 2.8828125 4.1992188 L 8.84375 6.0898438 L 13.117188 4.734375 C 13.266186 4.687375 13.388672 4.5165625 13.388672 4.3515625 L 13.388672 1.0253906 C 13.388672 0.90239063 13.319552 0.81731248 13.222656 0.80273438 z M 13.246094 8.0019531 C 13.213703 7.9970938 13.177875 7.9999687 13.140625 8.0117188 L 2.8828125 11.265625 C 2.7338125 11.312625 2.6113281 11.485391 2.6113281 11.650391 L 2.6113281 14.976562 C 2.6113281 15.140562 2.7338125 15.2345 2.8828125 15.1875 L 13.140625 11.933594 C 13.289625 11.885594 13.412109 11.714781 13.412109 11.550781 L 13.412109 11.363281 L 13.412109 11.349609 L 13.412109 8.2246094 C 13.412109 8.1016094 13.343266 8.0165312 13.246094 8.0019531 z"/>
</svg>
